static/images/oneOnOne.svg

<svg viewBox="0 0 500 500" xmlns="http://www.w3.org/2000/svg"><rect fill="#f9f7f8" height="110.3" rx="40.3" width="113.44" x="93.69" y="244.99"/><path d="m107.55 187.02-13.86 57.97h113.44l-19.94-57.97z" fill="#520993"/><path d="m147.7 156.15a41.91 41.91 0 0 0 -41.9 41.29h83.8a41.9 41.9 0 0 0 -41.9-41.29z" fill="#520993"/><path d="m107.46 216.13a40.24 40.24 0 0 0 40.24 40.25 40.25 40.25 0 0 0 40.3-40.25v-16.42c0-.2 0-.4 0-.6h-80.53v.6z" fill="#fff" stroke="#520993" stroke-miterlimit="10" stroke-width="4"/><path d="m147.91 244.16a11.68 11.68 0 0 0 11.68-11.68h-23.36a11.68 11.68 0 0 0 11.68 11.68z" fill="#f29021"/><path d="m331.7 136.9h-47.63c-4.69 0-19.74 11.62-19.74 11.62s-3.29-18.59-7.16-22.19a39.4 39.4 0 0 1 -12.59-28.92 39.49 39.49 0 0 1 39.49-39.5h47.63a39.5 39.5 0 0 1 39.5 39.5 39.5 39.5 0 0 1 -39.5 39.49z" fill="#f29021"/><path d="m133.09 125h37.91c3.73 0 15.7 9.23 15.7 9.23s2.61-14.77 5.68-17.64a31.3 31.3 0 0 0 10-23 31.39 31.39 0 0 0 -31.38-31.38h-37.91a31.39 31.39 0 0 0 -31.39 31.4 31.39 31.39 0 0 0 31.39 31.39z" fill="#24e2bb"/><path d="m62.61 331.93h377.39a0 0 0 0 1 0 0v11.62a11.2 11.2 0 0 1 -11.2 11.2h-355a11.2 11.2 0 0 1 -11.2-11.2v-11.62a0 0 0 0 1 .01 0z" fill="#fff" stroke="#520993" stroke-miterlimit="10" stroke-width="4" transform="matrix(-1 0 -0 -1 502.61 686.67)"/><path d="m361.2 432.25h-83.74a18.53 18.53 0 0 1 -18.53-18.54l-4.65-99.63a18.54 18.54 0 0 1 18.54-18.54h93a18.54 18.54 0 0 1 18.53 18.54l-4.64 99.63a18.54 18.54 0 0 1 -18.51 18.54z" fill="#f9f7f8"/><path d="m388.07 255.58a24.32 24.32 0 0 0 1.21-33.09 24.29 24.29 0 0 0 -8.35-34.55 24.3 24.3 0 0 0 -37.37-17.51 24.29 24.29 0 0 0 -38.05-1.56 24.29 24.29 0 0 0 -38.15 14 24.3 24.3 0 0 0 -12.68 33.45 24.29 24.29 0 0 0 -6.88 31.27 24.26 24.26 0 0 0 14.05 30.41 24.33 24.33 0 0 0 27.15 30.21 58.75 58.75 0 0 0 55.28 3.55 24.31 24.31 0 0 0 25.54-14.76 24.29 24.29 0 0 0 17.11-40.37c.38-.35.77-.63 1.14-1.05z" fill="#520993"/><g fill="#f9f7f8"><path d="m377.85 300.69c17.86 10.94 28.51 24.31 44.95 37.31 6.66 5.25 13.86 12.22 12.78 20.63-.7 5.51-5 10-10 12.46s-10.58 3.17-16.14 3.91l-31.75 4c-5.2.66-10.86 1.22-15.34-1.51-5.84-3.55-7.39-11.18-8.39-17.94-1.48-10-2.95-20.07-1.82-30.08s5.2-20.09 13-26.41"/><path d="m260.48 301a532.55 532.55 0 0 0 -51.48 35.84c-6.66 5.25-13.86 12.21-12.79 20.62.71 5.52 5 10 10 12.47s10.62 3.17 16.13 3.87l31.75 4c5.2.65 10.86 1.22 15.34-1.51 5.83-3.55 7.39-11.18 8.39-17.94 1.47-10 2.95-20.07 1.82-30.08s-5.2-20.09-13-26.42"/><path d="m197 258.81a434.26 434.26 0 0 1 40.26 36.66c5.2 5.36 10.83 12.47 10 21.06a17.4 17.4 0 0 1 -7.83 12.74c-3.9 2.49-8.3 3.24-12.61 4l-24.82 4.04c-4.07.67-8.5 1.25-12-1.53-4.56-3.64-5.78-11.43-6.56-18.33-1.15-10.18-2.31-20.5-1.42-30.72s4.06-20.52 10.19-27"/><path d="m105.85 257.71a451.3 451.3 0 0 0 -40.26 39.86c-5.2 5.83-10.83 13.57-10 22.91a19.14 19.14 0 0 0 7.83 13.84c3.9 2.72 8.3 3.53 12.61 4.3l24.8 4.45c4.07.73 8.49 1.36 12-1.67 4.56-3.95 5.78-12.42 6.56-19.92 1.15-11.07 2.31-22.29 1.42-33.41s-4.06-22.32-10.19-29.34"/></g></svg>

<svg id="Layer_1" data-name="Layer 1" xmlns="http://www.w3.org/2000/svg" viewBox="0 0 500 500"><defs><style>.cls-1{fill:#f9f7f8;}.cls-2{fill:#520993;}.cls-3{fill:#fff;stroke:#520993;stroke-miterlimit:10;stroke-width:4px;}.cls-4{fill:#f29021;}.cls-5{fill:#24e2bb;}</style></defs><title>oneOnOne</title><rect class="cls-1" x="93.69" y="244.99" width="113.44" height="110.3" rx="40.3"/><polygon class="cls-2" points="107.55 187.02 93.69 244.99 207.13 244.99 187.19 187.02 107.55 187.02"/><path class="cls-2" d="M147.7,156.15h0a41.91,41.91,0,0,0-41.9,41.29h83.8A41.9,41.9,0,0,0,147.7,156.15Z"/><path class="cls-3" d="M107.46,216.13a40.24,40.24,0,0,0,40.24,40.25h0A40.25,40.25,0,0,0,188,216.13V199.71c0-.2,0-.4,0-.6H107.47c0,.2,0,.4,0,.6Z"/><path class="cls-4" d="M147.91,244.16a11.68,11.68,0,0,0,11.68-11.68H136.23A11.68,11.68,0,0,0,147.91,244.16Z"/><path class="cls-4" d="M331.7,136.9H284.07c-4.69,0-19.74,11.62-19.74,11.62s-3.29-18.59-7.16-22.19a39.4,39.4,0,0,1-12.59-28.92h0a39.49,39.49,0,0,1,39.49-39.5H331.7a39.5,39.5,0,0,1,39.5,39.5h0A39.5,39.5,0,0,1,331.7,136.9Z"/><path class="cls-5" d="M133.09,125H171c3.73,0,15.7,9.23,15.7,9.23s2.61-14.77,5.68-17.64a31.3,31.3,0,0,0,10-23h0A31.39,31.39,0,0,0,171,62.21H133.09a31.39,31.39,0,0,0-31.39,31.4h0A31.39,31.39,0,0,0,133.09,125Z"/><path class="cls-3" d="M62.61,331.93H440a0,0,0,0,1,0,0v11.62a11.2,11.2,0,0,1-11.2,11.2h-355a11.2,11.2,0,0,1-11.2-11.2V331.93A0,0,0,0,1,62.61,331.93Z" transform="translate(502.61 686.67) rotate(180)"/><path class="cls-1" d="M361.2,432.25H277.46a18.53,18.53,0,0,1-18.53-18.54l-4.65-99.63a18.54,18.54,0,0,1,18.54-18.54h93a18.54,18.54,0,0,1,18.53,18.54l-4.64,99.63A18.54,18.54,0,0,1,361.2,432.25Z"/><path class="cls-2" d="M388.07,255.58a24.32,24.32,0,0,0,1.21-33.09,24.29,24.29,0,0,0-8.35-34.55,24.3,24.3,0,0,0-37.37-17.51,24.29,24.29,0,0,0-38.05-1.56,24.29,24.29,0,0,0-38.15,14,24.3,24.3,0,0,0-12.68,33.45,24.29,24.29,0,0,0-6.88,31.27A24.26,24.26,0,0,0,261.85,278,24.33,24.33,0,0,0,289,308.21a58.75,58.75,0,0,0,55.28,3.55A24.31,24.31,0,0,0,369.82,297a24.29,24.29,0,0,0,17.11-40.37C387.31,256.28,387.7,256,388.07,255.58Z"/><path class="cls-1" d="M377.85,300.69C395.71,311.63,406.36,325,422.8,338c6.66,5.25,13.86,12.22,12.78,20.63-.7,5.51-5,10-10,12.46S415,374.26,409.44,375l-31.75,4c-5.2.66-10.86,1.22-15.34-1.51-5.84-3.55-7.39-11.18-8.39-17.94-1.48-10-2.95-20.07-1.82-30.08s5.2-20.09,13-26.41"/><path class="cls-1" d="M260.48,301A532.55,532.55,0,0,0,209,336.84c-6.66,5.25-13.86,12.21-12.79,20.62.71,5.52,5,10,10,12.47s10.62,3.17,16.13,3.87l31.75,4c5.2.65,10.86,1.22,15.34-1.51,5.83-3.55,7.39-11.18,8.39-17.94,1.47-10,2.95-20.07,1.82-30.08s-5.2-20.09-13-26.42"/><path class="cls-1" d="M197,258.81a434.26,434.26,0,0,1,40.26,36.66c5.2,5.36,10.83,12.47,10,21.06a17.4,17.4,0,0,1-7.83,12.74c-3.9,2.49-8.3,3.24-12.61,4L202,337.31c-4.07.67-8.5,1.25-12-1.53-4.56-3.64-5.78-11.43-6.56-18.33-1.15-10.18-2.31-20.5-1.42-30.72s4.06-20.52,10.19-27"/><path class="cls-1" d="M105.85,257.71a451.3,451.3,0,0,0-40.26,39.86c-5.2,5.83-10.83,13.57-10,22.91a19.14,19.14,0,0,0,7.83,13.84c3.9,2.72,8.3,3.53,12.61,4.3l24.8,4.45c4.07.73,8.49,1.36,12-1.67,4.56-3.95,5.78-12.42,6.56-19.92,1.15-11.07,2.31-22.29,1.42-33.41s-4.06-22.32-10.19-29.34"/></svg>
